X:1
T:Title
%%score { ( 1 3 4 ) | 2 }
L:1/8
M:9/8
K:Ab
V:1 treble nm="Grand Piano"
V:3 treble 
V:4 treble 
V:2 bass 
V:1
 z3 z3 z2[Q:1/4=95] [CE] | [CE]3 [CE][EA][Ec] [Ee][Ec][EA] | [Fc]3 .[FB]3 B=AB | d3- d2 B G2 F | %4
 [CE]6 [Ec][DB][CA] | [CE]3 .[A,C]3 [CE][CA][Ec] | [_Ge]3 .[Fd]3 [DF][Fc][FB] | E3 A3 BAB | %8
 [Ec]6 [Ec][DB][CA] | [CE]3 .[A,C]3 [CE][CA][Ec] | [_Ge]3 .[Fd]3 [DF][Fc][FB] | E3 c3 c2 B | %12
[M:5/8] [CA]-[CA]- [CA]3 |[M:4/4] z2 z e- e4- | e2 z G- G4- | G2 z d- d4- | d2 z c- c3 z | %17
 z2 z f- f e2 E- | E z z d- d3 z | z2 z F- F3 D- | %20
 D z z A- A4-[Q:1/4=93][Q:1/4=92][Q:1/4=90][Q:1/4=89][Q:1/4=87][Q:1/4=86][Q:1/4=84][Q:1/4=83][Q:1/4=81][Q:1/4=80][Q:1/4=78][Q:1/4=77][Q:1/4=75][Q:1/4=74][Q:1/4=72] | %21
 A z z2 z4 |] %22
V:2
 z3 z3 z2 [A,,A,] | [A,,A,]3 [A,,A,][C,A,][A,,A,] [C,A,][C,A,][C,A,] | %2
 [D,A,]3 .[D,A,]3 [E,G,E][E,_G,E][E,=G,E] | [E,G,E]3- [E,G,E]2 [E,G,E] [E,B,D]2 [G,D] | %4
 [A,,A,]6 [A,,A,][A,,A,][A,,A,] | [A,,A,]3 .[A,,E,]3 [A,,A,][A,,A,][A,,A,] | %6
 [C,A,]3 .[D,A,]3 [D,A,][D,A,][D,A,] | [E,A,C]3 [E,A,C]3 [E,G,D][E,A,C][E,G,E] | %8
 [A,,A,]6 [A,,A,][A,,A,][A,,A,] | [A,,A,]3 .[A,,E,]3 [A,,A,][A,,A,][A,,A,] | %10
 [C,A,]3 .[D,A,]3 [D,A,][D,A,][D,A,] | [E,A,C]3 [E,A,E]3 [E,A,E]2 [E,G,D] | %12
[M:5/8] [A,,A,]-[A,,A,]- [A,,A,]3 |[M:4/4] z4 z/ [A,C]/[A,C]- [A,C]/[A,C]/[A,C]- | %14
 [A,C] z z2 z/ [E,B,]/[E,B,]- [E,B,]/[E,B,]/[E,B,]- | %15
 [E,B,] z z2 z/ [G,B,]/[G,B,]- [G,B,]/[G,B,]/[G,B,]- | %16
 [G,B,] z z2 z/ [A,C]/[A,C]- [A,C]/[A,C]/[A,C]- | [A,C] z z2 z/ [A,C]/[A,CE]- [A,CE]/[A,C]/[A,C]- | %18
 [A,C] z z2 z/ [D,A,]/[D,A,]- [D,A,]/[D,A,]/[D,A,]- | %19
 [D,A,] z z2 z/ [E,G,]/[E,G,]- [E,G,]/[E,G,]/[E,G,]- | %20
 [E,G,] z z2 z/[K:treble] [A,C]/[A,D]- [A,D]/[A,D]/[A,C]- | [A,C] z z2 z4 |] %22
V:3
 x9 | x9 | x9 | x9 | x9 | x9 | x9 | x9 | x9 | x9 | x9 | x9 |[M:5/8] x5 | %13
[M:4/4] EA- A<.c z/ E/E- E<.E | z/ c/B- B<.A z/ E/E- E<.E | z/ G/B- B<.c z/ E/E- E<.E | %16
 z/ G/A- A<.B z/ E/E- E/E/E- | E/E/A- A<.c z/ .E3/2 z/ .E3/2 | z/ c/B- B<.A z/ F/F- F/F/F- | %19
 F/F/c- c<.B z/ D/D- D<.D | z/ d/c- c<.B z/ E/F- F/F/E- | E z z2 z4 |] %22
V:4
 x9 | x9 | x9 | x9 | x9 | x9 | x9 | x9 | x9 | x9 | x9 | x9 |[M:5/8] x5 |[M:4/4] z4 z2 z E- | %14
 E z z2 z2 z E- | E z z2 z2 z E- | E z z2 z4 | x8 | x8 | x8 | x8 | x8 |] %22

